dapp/src/images/telegram-icon-gray.svg

<svg fill="none" height="17" viewBox="0 0 21 17" width="21" xmlns="http://www.w3.org/2000/svg"><path clip-rule="evenodd" d="m15.8 16.5412c.3.2.6.2.9.1s.5-.3.6-.7c.7-3.2 2.5-11.49999 3.2-14.39999.1-.2 0-.5-.2-.599999-.3-.2-.5-.2-.7-.2-3.5 1.299999-14.3 5.199999-18.7 6.699999-.3 0-.4.3-.4.6s.2.6.5.6c2 .6 4.5 1.39999 4.5 1.39999s1.2 3.5 1.9 5.3c.1.2.3.4.5.5s.5 0 .6-.1c1-.9 2.6-2.4 2.6-2.4s3 2 4.7 3.2zm-9.2-6.99999 1.4 4.39999.3-2.8s5.4-4.69999 8.5-7.29999c.1-.1.1-.2 0-.3s-.2-.1-.3-.1c-3.5 2.2-9.9 6.1-9.9 6.1z" fill="#9ea2ab" fill-rule="evenodd"/></svg>

<svg width="21" height="17" viewBox="0 0 21 17" fill="none" xmlns="http://www.w3.org/2000/svg">
<path fill-rule="evenodd" clip-rule="evenodd" d="M15.8 16.5412C16.1 16.7412 16.4 16.7412 16.7 16.6412C17 16.5412 17.2 16.3412 17.3 15.9412C18 12.7412 19.8 4.44121 20.5 1.54121C20.6 1.34121 20.5 1.04121 20.3 0.941211C20 0.741211 19.8 0.741211 19.6 0.741211C16.1 2.04121 5.3 5.94121 0.9 7.44121C0.6 7.44121 0.5 7.74121 0.5 8.04121C0.5 8.34121 0.7 8.64121 1 8.64121C3 9.24121 5.5 10.0412 5.5 10.0412C5.5 10.0412 6.7 13.5412 7.4 15.3412C7.5 15.5412 7.7 15.7412 7.9 15.8412C8.1 15.9412 8.4 15.8412 8.5 15.7412C9.5 14.8412 11.1 13.3412 11.1 13.3412C11.1 13.3412 14.1 15.3412 15.8 16.5412ZM6.6 9.54121L8 13.9412L8.3 11.1412C8.3 11.1412 13.7 6.44121 16.8 3.84121C16.9 3.74121 16.9 3.64121 16.8 3.54121C16.7 3.44121 16.6 3.44121 16.5 3.44121C13 5.64121 6.6 9.54121 6.6 9.54121Z" fill="#9EA2AB"/>
</svg>
